client/public/lut/canon_look_best.cube
LUT_3D_SIZE 16
0.000000 0.000000 0.000000
0.040580 -0.004864 -0.004864
0.096063 -0.011515 -0.011515
0.158359 -0.018981 -0.018981
0.225161 -0.026991 -0.026991
0.295295 -0.035399 -0.035399
0.368172 -0.044135 -0.044135
0.443770 -0.053193 -0.053193
0.521303 -0.062488 -0.062488
0.597605 -0.071633 -0.071633
0.673246 -0.080695 -0.080695
0.749499 -0.089835 -0.089835
0.826654 -0.099093 -0.099093
0.903694 -0.108318 -0.108318
0.972560 -0.116578 -0.116578
1.020984 -0.122384 -0.122384
-0.000270 0.040191 -0.000270
0.040191 0.040191 -0.000301
0.104475 0.040431 -0.041237
0.166623 0.036795 -0.047187
0.230618 0.037243 -0.048914
0.299177 0.034819 -0.052874
0.371157 0.027088 -0.058490
0.446180 -0.018351 -0.065315
0.523309 -0.038909 -0.072886
0.599289 -0.052930 -0.080664
0.674678 -0.065196 -0.088718
0.750739 -0.076569 -0.097007
0.827900 -0.087488 -0.105566
0.904701 -0.098024 -0.114186
0.973471 -0.107411 -0.121890
1.021869 -0.114445 -0.127251
-0.000639 0.095145 -0.000639
0.047573 0.095145 -0.000653
0.095145 0.095145 -0.000713
0.163560 0.102039 -0.059811
0.244884 0.094759 -0.096640
0.318207 0.086411 -0.108440
0.387401 0.085549 -0.109716
0.459269 0.086333 -0.110835
0.533941 0.086217 -0.113244
0.608082 0.083939 -0.116466
0.682005 0.079371 -0.120538
0.757052 0.072194 -0.125473
0.833398 0.060821 -0.131325
0.909532 0.040642 -0.137516
0.977787 -0.040218 -0.143146
1.025761 -0.066046 -0.146725
-0.001052 0.156848 -0.001052
0.052280 0.156848 -0.001063
0.104561 0.156848 -0.001101
0.156848 0.156848 -0.001173
0.223022 0.167255 -0.002287
0.317258 0.162853 -0.135462
0.400425 0.154956 -0.158036
0.481729 0.144005 -0.174286
0.557016 0.139807 -0.178224
0.628767 0.138835 -0.178047
0.699942 0.138555 -0.177553
0.772477 0.137991 -0.177983
0.846725 0.136725 -0.179603
0.921235 0.134174 -0.181997
0.987931 0.129142 -0.183792
1.034856 0.118041 -0.184203
-0.001498 0.223020 -0.001498
0.055753 0.223020 -0.001505
0.111510 0.223020 -0.001532
0.167255 0.223020 -0.001585
0.223020 0.223020 -0.001671
0.292465 0.233998 -0.001864
0.380284 0.237258 -0.139070
0.479806 0.228097 -0.202466
0.566954 0.219382 -0.223757
0.650290 0.205776 -0.241589
0.725421 0.196995 -0.247211
0.797455 0.193268 -0.247311
0.869880 0.192096 -0.246351
0.942104 0.191465 -0.245290
1.006481 0.189192 -0.242910
1.051482 0.180016 -0.239262
-0.001962 0.292465 -0.001962
0.058491 0.292465 -0.001972
0.116997 0.292465 -0.001990
0.175478 0.292465 -0.002036
0.233998 0.292465 -0.002098
0.292465 0.292465 -0.002191
0.364650 0.303891 -0.002390
0.443929 0.312643 -0.098199
0.553615 0.305679 -0.231284
0.647113 0.295114 -0.269120
0.732150 0.283313 -0.288935
0.816172 0.268176 -0.307414
0.894996 0.256802 -0.316413
0.968786 0.250523 -0.317908
1.032402 0.245337 -0.314280
1.075883 0.233704 -0.307565
-0.002446 0.364650 -0.002446
0.060769 0.364650 -0.002446
0.121553 0.364650 -0.002474
0.182326 0.364650 -0.002501
0.243118 0.364650 -0.002555
0.303890 0.364650 -0.002632
0.364650 0.364650 -0.002730
0.439520 0.376761 -0.002935
0.516326 0.387234 -0.005294
0.617299 0.385035 -0.225804
0.723229 0.371279 -0.308809
0.812322 0.360309 -0.334692
0.899127 0.347909 -0.354858
0.984221 0.332153 -0.373631
1.055707 0.315593 -0.381968
1.101865 0.295971 -0.378072
-0.002956 0.439520 -0.002956
0.062778 0.439520 -0.002956
0.125585 0.439520 -0.002967
0.188372 0.439520 -0.002999
0.251169 0.439520 -0.003040
0.313944 0.439520 -0.003112
0.376761 0.439520 -0.003190
0.439520 0.439520 -0.003284
0.516323 0.451765 -0.003496
0.591881 0.460339 -0.003707
0.679111 0.462804 -0.188306
0.790536 0.451401 -0.323119
0.892321 0.437485 -0.379972
0.980080 0.426288 -0.401191
1.057703 0.409285 -0.417447
1.112156 0.382407 -0.424946
-0.003462 0.516323 -0.003462
0.064516 0.516323 -0.003462
0.129068 0.516323 -0.003479
0.193609 0.516323 -0.003513
0.258155 0.516323 -0.003547
0.322682 0.516323 -0.003596
0.387233 0.516323 -0.003676
0.451764 0.516323 -0.003754
0.516323 0.516323 -0.003859
0.591880 0.526109 -0.004059
0.666761 0.533448 -0.004245
0.745366 0.538930 -0.118049
0.853869 0.532731 -0.312225
0.964554 0.517626 -0.407958
1.051468 0.499907 -0.443725
1.107894 0.474851 -0.451455
-0.003975 0.591880 -0.003975
0.065734 0.591880 -0.003975
0.131512 0.591880 -0.003989
0.197270 0.591880 -0.004017
0.263043 0.591880 -0.004045
0.328820 0.591880 -0.004086
0.394557 0.591880 -0.004153
0.460338 0.591880 -0.004232
0.526108 0.591880 -0.004321
0.591880 0.591880 -0.004433
0.666760 0.600130 -0.004622
0.742240 0.607300 -0.004800
0.818819 0.614137 -0.008266
0.916298 0.612543 -0.277148
1.021502 0.594795 -0.410487
1.094780 0.564296 -0.463215
-0.004481 0.666760 -0.004481
0.066638 0.666760 -0.004481
0.133341 0.666760 -0.004481
0.200029 0.666760 -0.004505
0.266712 0.666760 -0.004529
0.333376 0.666760 -0.004575
0.400079 0.666760 -0.004645
0.466728 0.666760 -0.004712
0.533447 0.666760 -0.004778
0.600129 0.666760 -0.004886
0.666760 0.666760 -0.004991
0.742239 0.674734 -0.005171
0.818815 0.682331 -0.005362
0.895023 0.688421 -0.005562
0.972846 0.685180 -0.215152
1.049313 0.659925 -0.364958
-0.004991 0.742239 -0.004991
0.067426 0.742239 -0.004991
0.134930 0.742239 -0.004991
0.202401 0.742239 -0.005011
0.269900 0.742239 -0.005031
0.337363 0.742239 -0.005072
0.404814 0.742239 -0.005131
0.472322 0.742239 -0.005191
0.539800 0.742239 -0.005268
0.607299 0.742239 -0.005344
0.674734 0.742239 -0.005454
0.742238 0.742238 -0.005562
0.818815 0.750679 -0.005734
0.895023 0.757344 -0.005917
0.963269 0.756883 -0.006076
1.011775 0.741534 -0.069209
-0.005490 0.818815 -0.005490
0.068168 0.818815 -0.005508
0.136445 0.818815 -0.005508
0.204694 0.818815 -0.005526
0.272928 0.818815 -0.005544
0.341155 0.818815 -0.005579
0.409403 0.818815 -0.005632
0.477641 0.818815 -0.005684
0.545878 0.818815 -0.005752
0.614137 0.818815 -0.005818
0.682330 0.818815 -0.005917
0.750679 0.818815 -0.006013
0.818814 0.818814 -0.006138
0.895022 0.826053 -0.006319
0.963268 0.825624 -0.006437
1.011235 0.808902 -0.006437
-0.006013 0.895023 -0.006013
0.068757 0.895023 -0.006013
0.137651 0.895023 -0.006013
0.206503 0.895023 -0.006045
0.275358 0.895023 -0.006045
0.344204 0.895023 -0.006076
0.413029 0.895023 -0.006138
0.481866 0.895023 -0.006169
0.550731 0.895022 -0.006230
0.619591 0.895022 -0.006319
0.688420 0.895022 -0.006378
0.757344 0.895022 -0.006494
0.826053 0.895022 -0.006578
0.895022 0.895022 -0.006689
0.963268 0.894527 -0.006824
1.011234 0.876461 -0.006797
-0.006465 0.963268 -0.006465
0.068708 0.963268 -0.006465
0.137575 0.963268 -0.006465
0.206381 0.963268 -0.006494
0.275206 0.963268 -0.006522
0.344019 0.963268 -0.006522
0.412833 0.963268 -0.006578
0.481624 0.963268 -0.006606
0.550467 0.963268 -0.006662
0.619276 0.963268 -0.006743
0.688069 0.963268 -0.006824
0.756882 0.963268 -0.006903
0.825623 0.963268 -0.006980
0.894527 0.963268 -0.007108
0.963267 0.963267 -0.007207
1.011234 0.943752 -0.007182
-0.006797 1.011234 -0.006797
0.067304 1.011234 -0.006797
0.134785 1.011234 -0.006797
0.202210 1.011234 -0.006797
0.269644 1.011234 -0.006824
0.337055 1.011234 -0.006850
0.404435 1.011234 -0.006877
0.471889 1.011234 -0.006929
0.539305 1.011234 -0.006981
0.606745 1.011234 -0.007032
0.674131 1.011234 -0.007108
0.741687 1.011234 -0.007182
0.808901 1.011234 -0.007256
0.876460 1.011234 -0.007353
0.943752 1.011234 -0.007447
1.011234 1.011234 -0.007564
-0.000104 -0.000104 0.040191
0.040191 -0.000184 0.040191
0.095145 -0.000396 0.047573
0.156848 -0.000641 0.052281
0.223042 -0.004039 0.055719
0.293249 -0.020619 0.056658
0.366608 -0.034479 0.054207
0.442674 -0.047002 0.047927
0.520673 -0.059153 0.033992
0.597379 -0.070536 -0.030214
0.673221 -0.080635 -0.051921
0.749471 -0.089760 -0.066162
0.826660 -0.099009 -0.078824
0.903656 -0.108212 -0.090572
0.972517 -0.116454 -0.100898
1.020952 -0.122254 -0.108641
-0.000281 0.040191 0.040191
0.040191 0.040191 0.040191
0.105482 0.027445 0.027445
0.165172 0.012652 0.012652
0.229744 -0.021315 -0.021315
0.298513 -0.032211 -0.032211
0.370528 -0.041856 -0.041856
0.445575 -0.051344 -0.051344
0.522720 -0.060857 -0.060857
0.598720 -0.070115 -0.070115
0.674124 -0.079232 -0.079232
0.750158 -0.088388 -0.088388
0.827361 -0.097648 -0.097648
0.904135 -0.106838 -0.106838
0.972994 -0.115063 -0.115063
1.020980 -0.118768 -0.118768
-0.000644 0.095145 0.047573
0.022644 0.096616 0.022644
0.095444 0.095444 0.021669
0.170230 0.096121 -0.068856
0.247996 0.085795 -0.093555
0.317309 0.079411 -0.099270
0.385688 0.079341 -0.099422
0.457654 0.079584 -0.100859
0.532560 0.078413 -0.103904
0.606942 0.074778 -0.107851
0.681102 0.068521 -0.112541
0.756196 0.058270 -0.118158
0.832619 0.040455 -0.124402
0.908872 -0.035826 -0.131188
0.977164 -0.061147 -0.137077
1.024794 -0.073781 -0.139241
-0.001057 0.156848 0.052280
0.019343 0.157658 0.019343
0.099705 0.157400 0.019247
0.157006 0.157006 0.019119
0.224262 0.165530 -0.010029
0.319802 0.158625 -0.135810
0.402006 0.149614 -0.156213
0.481673 0.138956 -0.169987
0.555892 0.135768 -0.172381
0.627491 0.135171 -0.171837
0.698693 0.134907 -0.171374
0.771304 0.134198 -0.171982
0.845713 0.132599 -0.173855
0.920292 0.129680 -0.176525
0.987098 0.124476 -0.178482
1.033748 0.115092 -0.178014
-0.001498 0.223020 0.055753
0.019108 0.223515 0.019108
0.104557 0.223438 0.019136
0.165050 0.223310 0.019204
0.223113 0.223113 0.019326
0.292990 0.233005 0.019695
0.382736 0.234713 -0.143781
0.480861 0.225127 -0.201317
0.567879 0.215643 -0.222365
0.650538 0.201974 -0.239113
0.724711 0.193970 -0.243415
0.796550 0.190714 -0.243024
0.868807 0.189717 -0.241909
0.941022 0.189188 -0.240828
1.005505 0.186968 -0.238510
1.050264 0.178908 -0.234169
-0.001962 0.292465 0.058491
0.019944 0.292803 0.019944
0.108962 0.292774 0.020000
0.172089 0.292730 0.020114
0.232745 0.292636 0.020295
0.292535 0.292535 0.020557
0.364933 0.303262 0.021179
0.445174 0.311250 -0.104074
0.555176 0.303370 -0.232778
0.647853 0.292729 -0.268108
0.732802 0.280529 -0.287785
0.816391 0.265208 -0.305791
0.894591 0.254425 -0.313699
0.968161 0.248509 -0.314746
1.031577 0.243605 -0.310900
1.074755 0.232825 -0.303587
-0.002446 0.364650 0.060769
0.021396 0.364942 0.021396
0.112903 0.364920 0.021457
0.178263 0.364880 0.021580
0.241110 0.364850 0.021775
0.303104 0.364776 0.022053
0.364714 0.364714 0.022412
0.439713 0.376279 0.023218
0.516581 0.386434 0.023278
0.618623 0.383470 -0.228542
0.724104 0.369407 -0.308896
0.812817 0.358418 -0.333748
0.899440 0.345789 -0.353836
0.984382 0.329807 -0.372443
1.055506 0.313644 -0.379998
1.101159 0.294749 -0.375335
-0.002956 0.439520 0.062778
0.023295 0.439702 0.023295
0.116540 0.439694 0.023356
0.183900 0.439677 0.023475
0.248694 0.439663 0.023668
0.312645 0.439632 0.023938
0.376207 0.439595 0.024292
0.439556 0.439556 0.024729
0.516419 0.451431 0.025667
0.592045 0.459724 0.026610
0.679984 0.461743 -0.191399
0.791582 0.449959 -0.324288
0.892782 0.436040 -0.379386
0.980456 0.424715 -0.400276
1.057918 0.407587 -0.416487
1.112160 0.380832 -0.423607
-0.003462 0.516323 0.064516
0.025530 0.516431 0.025530
0.119828 0.516426 0.025586
0.188877 0.516416 0.025703
0.255382 0.516400 0.025884
0.321034 0.516379 0.026141
0.386296 0.516407 0.026477
0.451368 0.516380 0.026891
0.516352 0.516352 0.027389
0.591974 0.525870 0.028328
0.666825 0.532950 0.029284
0.745839 0.538262 -0.120559
0.854697 0.531663 -0.313887
0.965150 0.516377 -0.408313
1.051691 0.498760 -0.442886
1.107971 0.473711 -0.450355
-0.003975 0.591880 0.065734
0.027929 0.591990 0.027929
0.122243 0.591988 0.027981
0.192438 0.591983 0.028089
0.260120 0.591976 0.028259
0.326956 0.591945 0.028497
0.393421 0.591934 0.028809
0.459644 0.591921 0.029197
0.525826 0.591908 0.029662
0.591894 0.591894 0.030202
0.666810 0.599926 0.031135
0.742348 0.606945 0.032127
0.818904 0.613677 0.032680
0.916870 0.611773 -0.278937
1.022144 0.593793 -0.411248
1.095188 0.563302 -0.463033
-0.004481 0.666760 0.066639
0.030449 0.666830 0.030449
0.124159 0.666828 0.030498
0.195170 0.666825 0.030597
0.263698 0.666820 0.030754
0.331406 0.666814 0.030971
0.398758 0.666807 0.031259
0.465886 0.666798 0.031617
0.532941 0.666788 0.032049
0.599906 0.666779 0.032549
0.666770 0.666770 0.033122
0.742282 0.674550 0.034089
0.818855 0.682000 0.035127
0.895066 0.688032 0.036188
0.973260 0.684666 -0.216665
1.049852 0.659167 -0.365932
-0.004991 0.742239 0.067426
0.033095 0.742310 0.033095
0.125938 0.742308 0.033141
0.197609 0.742305 0.033231
0.266890 0.742301 0.033373
0.335321 0.742295 0.033577
0.403407 0.742288 0.033841
0.471336 0.742280 0.034172
0.539132 0.742271 0.034571
0.606926 0.742263 0.035035
0.674539 0.742254 0.035569
0.742246 0.742246 0.036169
0.818828 0.750524 0.037180
0.895036 0.757062 0.038202
0.963279 0.756621 0.038987
1.011838 0.741012 -0.064410
-0.005508 0.818815 0.068168
0.035861 0.818843 0.035861
0.127706 0.818843 0.035902
0.200003 0.818842 0.035986
0.269952 0.818840 0.036114
0.339125 0.818837 0.036301
0.407964 0.818834 0.036547
0.476600 0.818831 0.036851
0.545136 0.818827 0.037221
0.613673 0.818824 0.037653
0.681994 0.818820 0.038150
0.750520 0.818817 0.038706
0.818815 0.818815 0.039332
0.895022 0.825987 0.040000
0.963268 0.825412 0.039987
1.011235 0.808708 0.039987
-0.006013 0.895023 0.068757
0.038674 0.895032 0.038674
0.129262 0.895031 0.038712
0.201979 0.895031 0.038788
0.272467 0.895030 0.038913
0.342186 0.895028 0.039084
0.411573 0.895027 0.039305
0.480818 0.895025 0.039587
0.549946 0.895023 0.039930
0.619027 0.895022 0.039997
0.688039 0.895022 0.039993
0.757062 0.895022 0.039985
0.825987 0.895022 0.039976
0.895022 0.895022 0.039966
0.963268 0.894460 0.039959
1.011234 0.876318 0.039958
-0.006465 0.963268 0.068708
0.039984 0.963268 0.039984
0.129416 0.963268 0.039984
0.201968 0.963268 0.039985
0.272352 0.963268 0.039985
0.342020 0.963268 0.039982
0.411321 0.963268 0.039976
0.480511 0.963268 0.039977
0.549628 0.963268 0.039969
0.618647 0.963268 0.039964
0.687588 0.963268 0.039959
0.756622 0.963268 0.039948
0.825412 0.963268 0.039943
0.894460 0.963267 0.039930
0.963267 0.963267 0.039922
1.011234 0.943646 0.039925
-0.006797 1.011234 0.067304
0.039958 1.011234 0.039958
0.126948 1.011234 0.039958
0.197934 1.011234 0.039958
0.266878 1.011234 0.039959
0.335095 1.011234 0.039956
0.403022 1.011234 0.039951
0.470759 1.011234 0.039949
0.538443 1.011234 0.039943
0.606098 1.011234 0.039940
0.673628 1.011234 0.039930
0.741199 1.011234 0.039925
0.808707 1.011234 0.039920
0.876318 1.011234 0.039910
0.943645 1.011234 0.039902
1.011234 1.011234 0.039887
-0.000245 -0.000245 0.095145
0.047574 -0.000295 0.095145
0.095145 -0.000435 0.095145
0.156848 -0.000669 0.104562
0.223021 -0.000928 0.111512
0.292466 -0.001202 0.116990
0.364651 -0.001491 0.121557
0.439521 -0.001796 0.125592
0.516390 -0.009352 0.129002
0.592553 -0.029201 0.130218
0.668509 -0.047005 0.129161
0.745277 -0.062660 0.126352
0.823194 -0.077416 0.121713
0.900686 -0.090887 0.115082
0.970104 -0.103009 0.105032
1.019080 -0.111882 0.090563
-0.000381 0.047573 0.095145
0.035418 0.035418 0.110285
0.102373 0.027311 0.102373
0.162845 0.021920 0.103297
0.227263 0.019761 0.106365
0.295556 0.019075 0.109900
0.366985 0.019107 0.113332
0.441284 0.019563 0.116620
0.518078 -0.009043 0.118901
0.594371 -0.035466 0.118643
0.670267 -0.052900 0.116113
0.747007 -0.067996 0.111701
0.824626 -0.081635 0.105451
0.902048 -0.094725 0.096293
0.971380 -0.106427 0.082519
1.019854 -0.112473 0.066819
-0.000666 0.095145 0.095145
0.022267 0.096162 0.096162
0.095145 0.095145 0.095145
0.175715 0.082935 0.082935
0.247486 0.065493 0.065493
0.315160 0.050194 0.050194
0.384616 0.032184 0.032184
0.457233 -0.028705 -0.028705
0.532414 -0.048232 -0.048232
0.606958 -0.061387 -0.061387
0.681176 -0.072620 -0.072620
0.756341 -0.083119 -0.083119
0.832768 -0.093302 -0.093302
0.908978 -0.103159 -0.103159
0.977278 -0.111832 -0.111832
1.020950 -0.087746 -0.087746
-0.001069 0.156848 0.104561
0.019308 0.157575 0.099813
0.067079 0.161202 0.067079
0.157784 0.157784 0.063431
0.240283 0.156134 -0.067685
0.332128 0.140856 -0.126043
0.410632 0.126109 -0.141869
0.481797 0.120695 -0.143043
0.553523 0.119489 -0.142315
0.624729 0.118451 -0.142058
0.696245 0.116621 -0.142997
0.769317 0.113630 -0.145384
0.844080 0.109408 -0.149000
0.918992 0.103307 -0.153397
0.986223 0.094290 -0.157193
1.029163 0.111195 -0.141117
-0.001512 0.223020 0.111510
0.019117 0.223494 0.104574
0.053872 0.226538 0.053872
0.154403 0.225308 0.052848
0.223738 0.223738 0.051521
0.296895 0.229668 0.049458
0.396041 0.223703 -0.159984
0.488264 0.212186 -0.196319
0.574483 0.198877 -0.216570
0.652605 0.186759 -0.226243
0.723864 0.181394 -0.226292
0.794623 0.179309 -0.224496
0.866634 0.178558 -0.223164
0.938926 0.177657 -0.222472
1.003690 0.174933 -0.220897
1.045051 0.179181 -0.206527
-0.001972 0.292465 0.116997
0.019964 0.292810 0.108968
0.048305 0.295092 0.048305
0.155417 0.294591 0.047974
0.227237 0.293863 0.047522
0.293003 0.293003 0.046987
0.367251 0.301137 0.046189
0.452950 0.305491 -0.129016
0.563539 0.293908 -0.238203
0.652949 0.282537 -0.264687
0.737468 0.268289 -0.283830
0.819089 0.252797 -0.298688
0.894665 0.243955 -0.302757
0.967009 0.239345 -0.302051
1.030063 0.235178 -0.297664
1.069768 0.232966 -0.282728
-0.002460 0.364650 0.121553
0.021417 0.364934 0.112902
0.045913 0.366666 0.045913
0.158036 0.366417 0.045811
0.231934 0.366042 0.045669
0.299709 0.365554 0.045500
0.365042 0.365042 0.045327
0.441227 0.374816 0.045110
0.519339 0.383313 -0.020557
0.625990 0.376973 -0.240718
0.729279 0.361822 -0.309615
0.816578 0.350156 -0.331107
0.902973 0.336194 -0.350805
0.987102 0.319474 -0.368268
1.056167 0.304890 -0.372606
1.097795 0.292450 -0.360654
-0.002956 0.439520 0.125585
0.023315 0.439699 0.116546
0.045091 0.441063 0.045091
0.161284 0.440954 0.045077
0.237117 0.440738 0.045054
0.306754 0.440476 0.045043
0.373914 0.440174 0.045041
0.439841 0.439841 0.045060
0.517502 0.450342 0.045182
0.593611 0.457552 0.045382
0.685118 0.457512 -0.206554
0.797199 0.443916 -0.330368
0.896030 0.429923 -0.377971
0.983340 0.417823 -0.398133
1.060746 0.399884 -0.414057
1.112024 0.375712 -0.415869
-0.003479 0.516323 0.129069
0.025550 0.516429 0.119823
0.045164 0.517539 0.045164
0.164594 0.517473 0.045185
0.242155 0.517346 0.045219
0.313401 0.517195 0.045279
0.382190 0.517019 0.045360
0.449724 0.516768 0.045469
0.516555 0.516555 0.045617
0.592737 0.525020 0.045919
0.668067 0.531322 0.046275
0.748745 0.535488 -0.137054
0.859549 0.527179 -0.322758
0.969355 0.511055 -0.411127
1.054167 0.493633 -0.441203
1.108137 0.469984 -0.443838
-0.003975 0.591880 0.131512
0.027947 0.591989 0.122238
0.045802 0.592893 0.045802
0.167020 0.592861 0.045834
0.245761 0.592766 0.045898
0.318111 0.592668 0.045981
0.388020 0.592558 0.046099
0.456649 0.592410 0.046253
0.524611 0.592232 0.046448
0.592079 0.592079 0.046684
0.667428 0.599272 0.047103
0.743288 0.605661 0.047573
0.820108 0.611794 0.040100
0.920641 0.608497 -0.289301
1.026214 0.589565 -0.416492
1.096636 0.559936 -0.460131
-0.004481 0.666760 0.133341
0.030467 0.666829 0.124154
0.046802 0.667630 0.046802
0.168955 0.667558 0.046846
0.248548 0.667553 0.046920
0.321711 0.667481 0.047022
0.392407 0.667421 0.047160
0.461876 0.667314 0.047337
0.530627 0.667165 0.047549
0.598944 0.667034 0.047802
0.666928 0.666928 0.048111
0.742831 0.674075 0.048622
0.819578 0.681033 0.049203
0.895972 0.686558 0.049817
0.975778 0.682265 -0.227827
1.052056 0.656582 -0.367872
-0.004991 0.742239 0.134930
0.033109 0.742309 0.125931
0.048106 0.742983 0.048106
0.170770 0.742947 0.048149
0.251111 0.742890 0.048227
0.324988 0.742813 0.048341
0.396399 0.742808 0.048482
0.466572 0.742803 0.048664
0.536073 0.742762 0.048894
0.605155 0.742614 0.049160
0.673817 0.742547 0.049475
0.742383 0.742383 0.049831
0.819168 0.750051 0.050431
0.895651 0.756185 0.051064
0.963987 0.755410 0.051568
1.012227 0.739798 0.044610
-0.005508 0.818815 0.136446
0.035875 0.818843 0.127712
0.049660 0.819430 0.049660
0.172646 0.819411 0.049706
0.253681 0.819382 0.049787
0.328257 0.819343 0.049895
0.400375 0.819292 0.050047
0.471248 0.819231 0.050232
0.541426 0.819160 0.050460
0.611218 0.819115 0.050730
0.680682 0.819030 0.051041
0.749945 0.819018 0.051405
0.818959 0.818959 0.051808
0.895332 0.825607 0.052458
0.963688 0.824745 0.052939
1.011235 0.807866 0.095087
-0.006013 0.895023 0.137651
0.038688 0.895032 0.129256
0.051400 0.895552 0.051400
0.174229 0.895537 0.051446
0.255802 0.895515 0.051526
0.330933 0.895484 0.051638
0.403552 0.895445 0.051781
0.474995 0.895396 0.051970
0.545742 0.895394 0.052194
0.616080 0.895331 0.052458
0.686017 0.895262 0.052771
0.755936 0.895231 0.053131
0.825458 0.895153 0.053530
0.895154 0.895154 0.053975
0.963474 0.894233 0.054438
1.011234 0.875801 0.095073
-0.006465 0.963268 0.137575
0.039984 0.963268 0.129416
0.053091 0.963652 0.053091
0.174307 0.963640 0.053140
0.255645 0.963623 0.053218
0.330603 0.963688 0.053323
0.403134 0.963656 0.053464
0.474460 0.963617 0.053643
0.545121 0.963572 0.053860
0.615322 0.963535 0.054120
0.685203 0.963478 0.054420
0.754964 0.963506 0.054763
0.824546 0.963441 0.055147
0.894073 0.963370 0.055580
0.963301 0.963301 0.056052
1.011234 0.943456 0.095067
-0.006797 1.011234 0.134785
0.039958 1.011234 0.126948
0.095074 1.011234 0.095074
0.183164 1.011234 0.095073
0.257612 1.011234 0.095073
0.328664 1.011234 0.095072
0.398269 1.011234 0.095070
0.467186 1.011234 0.095079
0.535707 1.011234 0.095077
0.603961 1.011234 0.095074
0.672042 1.011234 0.095071
0.740046 1.011234 0.095068
0.807865 1.011234 0.095064
0.875800 1.011234 0.095059
0.943456 1.011234 0.095055
1.011234 1.011234 0.095050
-0.000405 -0.000405 0.156848
0.052282 -0.000440 0.156848
0.104562 -0.000554 0.156848
0.156848 -0.000717 0.156848
0.223021 -0.000964 0.167256
0.292466 -0.001234 0.175480
0.364651 -0.001519 0.182328
0.439521 -0.001812 0.188375
0.516324 -0.002115 0.193614
0.591881 -0.002425 0.197277
0.666762 -0.002718 0.200037
0.742242 -0.003030 0.202412
0.818916 -0.014833 0.204587
0.895598 -0.036314 0.205371
0.964796 -0.055894 0.203059
1.013697 -0.069118 0.196336
-0.000507 0.052282 0.156848
0.027766 0.027766 0.174285
0.106062 0.024061 0.167000
0.161640 0.021289 0.161640
0.226769 0.019600 0.167635
0.295318 0.019052 0.173568
0.366854 0.019130 0.179133
0.441226 0.019607 0.184377
0.517687 0.020366 0.189072
0.592972 0.021310 0.192413
0.667687 0.022396 0.194953
0.743025 0.023606 0.197189
0.819593 0.017788 0.199105
0.896403 -0.035795 0.199401
0.965588 -0.057306 0.196676
1.014201 -0.067133 0.190561
-0.000775 0.104561 0.156848
0.021046 0.102182 0.161163
0.091576 0.091576 0.177179
0.172349 0.080257 0.172349
0.243106 0.067447 0.168188
0.310924 0.058545 0.165377
0.380204 0.052857 0.164883
0.452438 0.049311 0.165997
0.527074 0.047153 0.167832
0.601003 0.045939 0.169242
0.674671 0.044375 0.170290
0.749727 0.033569 0.170357
0.826510 -0.033918 0.169053
0.903327 -0.059356 0.166226
0.972245 -0.076564 0.161026
1.016600 -0.014323 0.167191
-0.001096 0.156848 0.156848
0.019245 0.157400 0.157400
0.065714 0.159926 0.159926
0.156848 0.156848 0.156848
0.245233 0.145787 0.145787
0.329324 0.127053 0.127053
0.404992 0.108652 0.108652
0.478423 0.091887 0.091887
0.552368 0.075204 0.075204
0.625089 0.055933 0.055933
0.697570 0.016408 0.016408
0.771065 -0.053379 -0.053379
0.845896 -0.072898 -0.072898
0.920831 -0.087697 -0.087697
0.988231 -0.099206 -0.099206
1.020872 0.112965 0.112965
-0.001526 0.223020 0.167255
0.019137 0.223435 0.165157
0.053503 0.226108 0.155003
0.123946 0.229745 0.123946
0.224554 0.224554 0.117692
0.314060 0.220685 0.069216
0.420203 0.200619 -0.148218
0.506803 0.181472 -0.173356
0.583247 0.168962 -0.179971
0.653068 0.163312 -0.178022
0.721870 0.160063 -0.175628
0.792234 0.157443 -0.174653
0.864489 0.154727 -0.175397
0.937191 0.151275 -0.177210
1.002684 0.145996 -0.178471
1.034843 0.186460 -0.114719
-0.001990 0.292465 0.175479
0.020002 0.292773 0.172126
0.048190 0.294917 0.155610
0.101441 0.299421 0.101441
0.213895 0.296908 0.098989
0.293965 0.293965 0.096059
0.373598 0.297275 0.091745
0.475103 0.291676 -0.167841
0.579255 0.275677 -0.233453
0.666081 0.260365 -0.254243
0.748427 0.242319 -0.271068
0.823174 0.230989 -0.275118
0.895018 0.225543 -0.273835
0.965687 0.222604 -0.271110
1.028350 0.219216 -0.266478
1.059077 0.239551 -0.226641
-0.002474 0.364650 0.182326
0.021458 0.364920 0.178273
