client/public/lut/canon_look_best.cube
LUT_3D_SIZE 6
0.000000 0.000000 0.000000
0.158359 -0.018981 -0.018981
0.368172 -0.044135 -0.044135
0.597605 -0.071633 -0.071633
0.826654 -0.099093 -0.099093
1.020984 -0.122384 -0.122384
-0.001052 0.156848 -0.001052
0.156848 0.156848 -0.001173
0.400425 0.154956 -0.158036
0.628767 0.138835 -0.178047
0.846725 0.136725 -0.179603
1.034856 0.118041 -0.184203
-0.002446 0.364650 -0.002446
0.182326 0.364650 -0.002501
0.364650 0.364650 -0.002730
0.617299 0.385035 -0.225804
0.899127 0.347909 -0.354858
1.101865 0.295971 -0.378072
-0.003975 0.591880 -0.003975
0.197270 0.591880 -0.004017
0.394557 0.591880 -0.004153
0.591880 0.591880 -0.004433
0.818819 0.614137 -0.008266
1.094780 0.564296 -0.463215
-0.005490 0.818815 -0.005490
0.204694 0.818815 -0.005526
0.409403 0.818815 -0.005632
0.614137 0.818815 -0.005818
0.818814 0.818814 -0.006138
1.011235 0.808902 -0.006437
-0.006797 1.011234 -0.006797
0.202210 1.011234 -0.006797
0.404435 1.011234 -0.006877
0.606745 1.011234 -0.007032
0.808901 1.011234 -0.007256
1.011234 1.011234 -0.007564
-0.000405 -0.000405 0.156848
0.156848 -0.000717 0.156848
0.364651 -0.001519 0.182328
0.591881 -0.002425 0.197277
0.818916 -0.014833 0.204587
1.013697 -0.069118 0.196336
-0.001096 0.156848 0.156848
0.156848 0.156848 0.156848
0.404992 0.108652 0.108652
0.625089 0.055933 0.055933
0.845896 -0.072898 -0.072898
1.020872 0.112965 0.112965
-0.002474 0.364650 0.182326
0.089156 0.370538 0.089156
0.365850 0.365850 0.085229
0.643135 0.363381 -0.259525
0.912055 0.316119 -0.343435
1.089887 0.293408 -0.322686
-0.003989 0.591880 0.197270
0.075876 0.595232 0.075876
0.376519 0.594190 0.075437
0.592529 0.592529 0.074830
0.823910 0.608307 -0.018249
1.099007 0.554484 -0.450121
-0.005508 0.818815 0.204694
0.074311 0.820959 0.074311
0.384310 0.820570 0.074373
0.606320 0.820010 0.074529
0.819187 0.819187 0.074859
1.011235 0.806603 0.156807
-0.006797 1.011234 0.202210
0.156813 1.011234 0.156813
0.390913 1.011234 0.156812
0.600744 1.011234 0.156810
0.806601 1.011234 0.156806
1.011234 1.011234 0.156801
-0.000941 -0.000941 0.364652
0.182329 -0.001133 0.364652
0.364651 -0.001671 0.364651
0.591881 -0.002515 0.394560
0.818817 -0.003410 0.409409
1.011236 -0.004167 0.404445
-0.001463 0.182328 0.364651
0.139186 0.139186 0.422374
0.393006 0.107724 0.393006
0.616121 0.086746 0.391105
0.836650 0.078210 0.392065
1.011236 0.156828 0.390924
-0.002555 0.364650 0.364650
0.087643 0.368737 0.368737
0.364650 0.364650 0.364650
0.662020 0.320538 0.320538
0.912322 0.259586 0.259586
1.020143 0.354404 0.354404
-0.004031 0.591880 0.394557
0.075717 0.594848 0.376971
0.260049 0.608616 0.260049
0.595558 0.595558 0.245928
0.884375 0.577358 -0.235147
1.101361 0.537466 -0.267440
-0.005544 0.818815 0.409403
0.074334 0.820811 0.384429
0.211117 0.832915 0.211117
0.569315 0.828041 0.206899
0.821705 0.821705 0.201408
1.011235 0.802312 0.364638
-0.006824 1.011234 0.404435
0.156812 1.011234 0.390913
0.364636 1.011234 0.364636
0.589707 1.011234 0.364635
0.802311 1.011234 0.364634
1.011234 1.011234 0.364632
-0.001526 -0.001526 0.591882
0.197278 -0.001653 0.591882
0.394561 -0.002090 0.591881
0.591881 -0.002706 0.591881
0.818817 -0.003547 0.614140
1.011236 -0.004258 0.606749
-0.001914 0.197278 0.591882
0.110311 0.110311 0.660792
0.402073 0.095495 0.632602
0.611282 0.084136 0.611282
0.834610 0.077457 0.617168
1.011236 0.156828 0.600748
-0.002924 0.394559 0.591881
0.083131 0.386603 0.609420
0.351699 0.351699 0.667562
0.650035 0.310311 0.650035
0.896368 0.265135 0.623154
1.011236 0.364645 0.589710
-0.004140 0.591880 0.591880
0.075427 0.594162 0.594162
0.254769 0.603724 0.603724
0.591880 0.591880 0.591880
0.893535 0.556620 0.556620
1.018300 0.587809 0.587809
-0.005614 0.818815 0.614137
0.074375 0.820559 0.606741
0.209604 0.831114 0.571756
0.478270 0.843237 0.478270
0.824523 0.824523 0.454967
1.023864 0.799793 0.563077
-0.006877 1.011234 0.606746
0.156812 1.011234 0.600744
0.364635 1.011234 0.589707
0.591876 1.011234 0.591876
0.803161 1.011234 0.591875
1.011234 1.011234 0.591875
-0.002115 -0.002115 0.818818
0.204701 -0.002207 0.818817
0.409410 -0.002542 0.818817
0.614140 -0.003081 0.818817
0.818817 -0.003754 0.818817
1.011236 -0.004408 0.808905
-0.002404 0.204701 0.818817
0.093156 0.093156 0.875292
0.403033 0.086741 0.858734
0.623155 0.080473 0.842694
0.831981 0.076531 0.831981
1.011236 0.156827 0.806605
-0.003284 0.409409 0.818817
0.079853 0.394192 0.841052
0.337413 0.337413 0.917350
0.640687 0.298792 0.913267
0.885435 0.255746 0.885435
1.011236 0.364645 0.802314
-0.004457 0.614139 0.818816
0.074820 0.610917 0.826233
0.245035 0.604471 0.872857
0.581691 0.581691 0.895879
0.882877 0.547074 0.882877
1.011235 0.591878 0.803163
-0.005718 0.818815 0.818815
0.074454 0.820293 0.820293
0.207353 0.828557 0.828557
0.469740 0.836505 0.836505
0.818814 0.818814 0.818814
1.015125 0.817373 0.817373
-0.006955 1.011234 0.808902
0.156810 1.011234 0.806602
0.364635 1.011234 0.802311
0.591876 1.011234 0.803161
0.818812 1.011234 0.818812
1.011233 1.011233 0.818812
-0.002607 -0.002607 1.011237
0.202226 -0.002682 1.011237
0.404448 -0.002935 1.011237
0.606750 -0.003393 1.011236
0.808905 -0.003961 1.011236
1.011236 -0.004622 1.011236
-0.002824 0.202225 1.011237
0.156844 0.156844 1.011237
0.390926 0.156843 1.011237
0.600748 0.156841 1.011237
0.806605 0.156830 1.011236
1.011236 0.156825 1.011236
-0.003563 0.404447 1.011236
0.156840 0.390925 1.011236
0.364648 0.364648 1.011236
0.589711 0.364648 1.011236
0.802314 0.364646 1.011236
1.011236 0.364644 1.011236
-0.004599 0.606749 1.011236
0.156826 0.600747 1.011236
0.364646 0.589710 1.011236
0.591879 0.591879 1.011236
0.803164 0.591879 1.011236
1.011235 0.591878 1.011235
-0.005819 0.808903 1.011235
0.156814 0.806603 1.011235
0.364641 0.802313 1.011235
0.591878 0.803163 1.011235
0.818814 0.818814 1.011235
1.011234 0.818814 1.011234
-0.007057 1.011234 1.011234
0.156809 1.011234 1.011234
0.364635 1.011234 1.011234
0.591875 1.011234 1.011234
0.818812 1.011234 1.011234
1.011233 1.011233 1.011233
